src/assets/logo.svg

<svg width="161" height="36" viewBox="0 0 161 36" fill="none" xmlns="http://www.w3.org/2000/svg">
<path fill-rule="evenodd" clip-rule="evenodd" d="M11.8008 18.5727C12.3653 18.6229 12.8705 18.7202 13.3162 18.8646C13.9995 19.0859 14.6202 19.3409 15.1783 19.6296L16.4774 16.0787C15.8423 15.7322 15.034 15.4147 14.0524 15.126C14.0345 15.1207 14.0166 15.1155 13.9986 15.1104C13.9575 16.6249 13.0746 17.9294 11.8008 18.5727ZM8.82753 18.8253C7.41293 18.3923 6.33179 17.1961 6.06413 15.7168C5.74867 15.8931 5.45712 16.0907 5.1895 16.3096C4.55437 16.8293 4.06359 17.4596 3.71716 18.2006C3.37072 18.9416 3.19751 19.774 3.19751 20.6978C3.19751 21.6216 3.3611 22.4059 3.68829 23.0506C4.01548 23.6954 4.43889 24.2439 4.95854 24.6962C5.47819 25.1485 6.0652 25.5238 6.71957 25.8221C7.37395 26.1204 8.02832 26.385 8.68269 26.616C10.1839 27.1164 11.2424 27.5831 11.8583 28.0162C12.4742 28.4492 12.7821 28.9929 12.7821 29.6473C12.7821 29.9552 12.734 30.2343 12.6378 30.4845C12.5416 30.7347 12.3684 30.9512 12.1182 31.1341C11.868 31.3169 11.536 31.4613 11.1222 31.5671C10.7084 31.673 10.1839 31.7259 9.54878 31.7259C8.27852 31.7259 7.20555 31.596 6.32984 31.3362C5.45413 31.0763 4.71797 30.7828 4.12133 30.4556L2.85107 34.0354C3.12052 34.1894 3.45252 34.353 3.84707 34.5262C4.24162 34.6994 4.71315 34.863 5.26167 35.017C5.81019 35.171 6.4405 35.3009 7.15262 35.4067C7.86473 35.5126 8.66344 35.5655 9.54878 35.5655C12.1855 35.5655 14.1583 35.0507 15.467 34.021C16.7758 32.9913 17.4301 31.5431 17.4301 29.6762C17.4301 28.7138 17.305 27.8959 17.0548 27.2223C16.8046 26.5486 16.4245 25.9616 15.9145 25.4612C15.4045 24.9608 14.7645 24.523 13.9947 24.1477C13.2248 23.7724 12.3202 23.3923 11.2809 23.0073C10.7805 22.8341 10.3234 22.6657 9.90964 22.5021C9.49585 22.3385 9.13017 22.1557 8.81261 21.9536C8.49504 21.7515 8.24965 21.5254 8.07644 21.2752C7.90322 21.025 7.81661 20.717 7.81661 20.3513C7.81661 19.7355 8.05238 19.2784 8.52391 18.98C8.61404 18.923 8.71525 18.8715 8.82753 18.8253ZM28.949 27.1068C28.949 25.7211 28.771 24.7395 28.4149 24.1621C28.0589 23.5847 27.4478 23.296 26.5817 23.296C26.3123 23.296 26.0332 23.3105 25.7445 23.3393C25.4558 23.3682 25.1768 23.4019 24.9073 23.4404V35.1614H20.6058V20.4957C20.9714 20.3995 21.3997 20.2984 21.8904 20.1926C22.3812 20.0867 22.9009 19.9905 23.4494 19.9039C23.9979 19.8173 24.5609 19.7499 25.1383 19.7018C25.7156 19.6537 26.2834 19.6296 26.8416 19.6296C27.9386 19.6296 28.8287 19.7691 29.512 20.0482C30.1952 20.3273 30.7582 20.6593 31.2008 21.0442C31.8167 20.6015 32.524 20.2551 33.3227 20.0049C34.1215 19.7547 34.8576 19.6296 35.5312 19.6296C36.7438 19.6296 37.7397 19.798 38.5192 20.1348C39.2987 20.4716 39.9194 20.948 40.3813 21.5639C40.8432 22.1797 41.1608 22.9111 41.334 23.7579C41.5072 24.6048 41.5938 25.5478 41.5938 26.5871V35.1614H37.2923V27.1068C37.2923 25.7211 37.1143 24.7395 36.7582 24.1621C36.4021 23.5847 35.7911 23.296 34.925 23.296C34.694 23.296 34.3717 23.3538 33.9579 23.4692C33.5441 23.5847 33.2024 23.7291 32.933 23.9023C33.0677 24.345 33.1543 24.8117 33.1928 25.3025C33.2313 25.7932 33.2506 26.3177 33.2506 26.8758V35.1614H28.949V27.1068ZM51.2939 32.1589C51.7174 32.1589 52.1215 32.1493 52.5065 32.1301C52.8914 32.1108 53.1993 32.0819 53.4303 32.0435V28.7812C53.2571 28.7427 52.9972 28.7042 52.6508 28.6657C52.3044 28.6272 51.9868 28.608 51.6981 28.608C51.2939 28.608 50.9138 28.6321 50.5578 28.6802C50.2017 28.7283 49.889 28.8197 49.6195 28.9544C49.3501 29.0892 49.1384 29.272 48.9844 29.5029C48.8304 29.7339 48.7534 30.0226 48.7534 30.369C48.7534 31.0427 48.9796 31.5094 49.4319 31.7692C49.8842 32.029 50.5048 32.1589 51.2939 32.1589ZM50.9475 19.5719C52.2178 19.5719 53.2763 19.7162 54.1231 20.0049C54.97 20.2936 55.6484 20.7074 56.1584 21.2463C56.6685 21.7852 57.0293 22.4396 57.241 23.2094C57.4527 23.9793 57.5586 24.8357 57.5586 25.7788V34.7283C56.9427 34.863 56.0863 35.0218 54.9892 35.2047C53.8922 35.3875 52.5642 35.4789 51.0052 35.4789C50.0237 35.4789 49.1335 35.3923 48.3348 35.2191C47.5361 35.0459 46.8481 34.762 46.2707 34.3674C45.6933 33.9729 45.2506 33.4581 44.9427 32.8229C44.6347 32.1878 44.4808 31.4083 44.4808 30.4845C44.4808 29.5992 44.6588 28.8486 45.0148 28.2327C45.3709 27.6168 45.8472 27.126 46.4439 26.7604C47.0405 26.3947 47.7238 26.13 48.4936 25.9664C49.2635 25.8029 50.0622 25.7211 50.8898 25.7211C51.4479 25.7211 51.9435 25.7451 52.3765 25.7932C52.8096 25.8413 53.1608 25.9039 53.4303 25.9809V25.5767C53.4303 24.8453 53.2089 24.2583 52.7663 23.8157C52.3236 23.373 51.5538 23.1517 50.4567 23.1517C49.7254 23.1517 49.0036 23.2046 48.2915 23.3105C47.5794 23.4163 46.9635 23.5655 46.4439 23.7579L45.8954 20.2936C46.1456 20.2166 46.4583 20.1348 46.8336 20.0482C47.2089 19.9616 47.6179 19.8846 48.0606 19.8173C48.5032 19.7499 48.9699 19.6922 49.4607 19.644C49.9515 19.5959 50.4471 19.5719 50.9475 19.5719ZM70.6076 23.7868C70.2226 23.6906 69.7704 23.5895 69.2507 23.4837C68.7311 23.3778 68.1729 23.3249 67.5763 23.3249C67.3068 23.3249 66.9845 23.349 66.6092 23.3971C66.2339 23.4452 65.95 23.4981 65.7575 23.5559V35.1614H61.456V20.7844C62.2258 20.5149 63.1352 20.2599 64.1841 20.0193C65.2331 19.7788 66.4023 19.6585 67.6918 19.6585C67.9227 19.6585 68.2018 19.6729 68.529 19.7018C68.8562 19.7307 69.1833 19.7691 69.5105 19.8173C69.8377 19.8654 70.1649 19.9231 70.4921 19.9905C70.8193 20.0578 71.0984 20.1396 71.3293 20.2359L70.6076 23.7868ZM73.4945 16.1942L77.7961 15.5013V19.976H82.9637V23.5559H77.7961V28.8967C77.7961 29.8013 77.9548 30.523 78.2724 31.0619C78.59 31.6008 79.2299 31.8702 80.1922 31.8702C80.6541 31.8702 81.1305 31.8269 81.6212 31.7403C82.112 31.6537 82.5595 31.5334 82.9637 31.3795L83.5699 34.7283C83.0503 34.94 82.4729 35.1229 81.8378 35.2768C81.2026 35.4308 80.4232 35.5078 79.4993 35.5078C78.3253 35.5078 77.3534 35.349 76.5835 35.0314C75.8137 34.7139 75.1978 34.2712 74.7359 33.7034C74.274 33.1357 73.9516 32.4476 73.7688 31.6393C73.5859 30.8309 73.4945 29.936 73.4945 28.9544V16.1942ZM99.8523 15.1549H101.815V35.1614H99.8523V25.5478H88.9974V35.1614H87.0343V15.1549H88.9974V23.8445H99.8523V15.1549ZM119.628 27.713C119.628 28.8871 119.459 29.9552 119.123 30.9176C118.786 31.8799 118.314 32.6978 117.708 33.3714C117.102 34.0451 116.385 34.5695 115.557 34.9448C114.73 35.3201 113.815 35.5078 112.815 35.5078C111.814 35.5078 110.9 35.3201 110.072 34.9448C109.244 34.5695 108.528 34.0451 107.921 33.3714C107.315 32.6978 106.843 31.8799 106.507 30.9176C106.17 29.9552 106.001 28.8871 106.001 27.713C106.001 26.539 106.17 25.4709 106.507 24.5085C106.843 23.5462 107.315 22.7235 107.921 22.0402C108.528 21.357 109.244 20.8277 110.072 20.4524C110.9 20.0771 111.814 19.8894 112.815 19.8894C113.815 19.8894 114.73 20.0771 115.557 20.4524C116.385 20.8277 117.102 21.357 117.708 22.0402C118.314 22.7235 118.786 23.5462 119.123 24.5085C119.459 25.4709 119.628 26.539 119.628 27.713ZM117.636 27.713C117.636 25.8461 117.203 24.3594 116.337 23.2527C115.471 22.1461 114.297 21.5927 112.815 21.5927C111.333 21.5927 110.159 22.1461 109.293 23.2527C108.426 24.3594 107.993 25.8461 107.993 27.713C107.993 29.5799 108.426 31.0619 109.293 32.1589C110.159 33.256 111.333 33.8045 112.815 33.8045C114.297 33.8045 115.471 33.256 116.337 32.1589C117.203 31.0619 117.636 29.5799 117.636 27.713ZM123.698 20.7555C124.257 20.6015 124.983 20.4283 125.878 20.2359C126.773 20.0434 127.933 19.9472 129.357 19.9472C131.243 19.9472 132.609 20.4957 133.456 21.5927C133.553 21.5157 133.74 21.3858 134.019 21.203C134.298 21.0202 134.65 20.8325 135.073 20.64C135.496 20.4476 135.992 20.284 136.56 20.1493C137.128 20.0145 137.758 19.9472 138.451 19.9472C139.586 19.9472 140.505 20.1156 141.208 20.4524C141.91 20.7892 142.454 21.2607 142.839 21.867C143.224 22.4733 143.484 23.1998 143.618 24.0466C143.753 24.8935 143.82 25.8173 143.82 26.8181V35.1614H141.944V27.4244C141.944 26.4428 141.901 25.5911 141.814 24.8694C141.727 24.1477 141.554 23.551 141.294 23.0795C141.034 22.608 140.664 22.2519 140.183 22.0113C139.702 21.7708 139.076 21.6505 138.306 21.6505C137.729 21.6505 137.204 21.7034 136.733 21.8093C136.261 21.9151 135.852 22.045 135.506 22.199C135.16 22.353 134.876 22.5069 134.654 22.6609C134.433 22.8149 134.274 22.9303 134.178 23.0073C134.351 23.5077 134.481 24.0707 134.568 24.6962C134.654 25.3217 134.698 25.9809 134.698 26.6737V35.1614H132.821V27.4244C132.821 26.4428 132.778 25.5911 132.691 24.8694C132.605 24.1477 132.427 23.551 132.157 23.0795C131.888 22.608 131.508 22.2519 131.017 22.0113C130.526 21.7708 129.876 21.6505 129.068 21.6505C128.164 21.6505 127.399 21.6986 126.773 21.7948C126.147 21.891 125.748 21.9777 125.575 22.0546V35.1614H123.698V20.7555ZM147.718 27.6842C147.718 26.3754 147.905 25.2351 148.281 24.2632C148.656 23.2912 149.147 22.4781 149.753 21.8237C150.359 21.1693 151.052 20.6833 151.832 20.3658C152.611 20.0482 153.415 19.8894 154.242 19.8894C156.071 19.8894 157.529 20.4861 158.616 21.6793C159.703 22.8726 160.247 24.7106 160.247 27.1934C160.247 27.3474 160.242 27.5013 160.233 27.6553C160.223 27.8093 160.209 27.9536 160.189 28.0883H149.71C149.767 29.9168 150.22 31.3217 151.067 32.3033C151.913 33.2848 153.261 33.7756 155.108 33.7756C156.128 33.7756 156.937 33.6794 157.533 33.4869C158.13 33.2945 158.563 33.1309 158.832 32.9961L159.179 34.6128C158.909 34.7668 158.404 34.9496 157.663 35.1614C156.922 35.3731 156.051 35.4789 155.051 35.4789C153.742 35.4789 152.626 35.2865 151.702 34.9015C150.778 34.5166 150.018 33.9777 149.421 33.2848C148.824 32.592 148.391 31.7692 148.122 30.8165C147.852 29.8638 147.718 28.8197 147.718 27.6842ZM158.313 26.5005C158.274 24.9416 157.909 23.7291 157.216 22.863C156.523 21.9969 155.541 21.5639 154.271 21.5639C153.597 21.5639 152.996 21.6986 152.467 21.968C151.938 22.2375 151.476 22.5983 151.081 23.0506C150.686 23.5029 150.379 24.0274 150.157 24.624C149.936 25.2207 149.806 25.8462 149.767 26.5005H158.313Z" fill="white"/>
<mask id="mask0" mask-type="alpha" maskUnits="userSpaceOnUse" x="0" y="0" width="20" height="20">
<rect x="10" y="0.100586" width="14" height="14" transform="rotate(45 10 0.100586)" fill="white"/>
</mask>
<g mask="url(#mask0)">
<path fill-rule="evenodd" clip-rule="evenodd" d="M10 13C8.9 13 8 13.9 8 15C8 16.1 8.9 17 10 17C11.1 17 12 16.1 12 15C12 13.9 11.1 13 10 13ZM16 15C16 11.69 13.31 9 10 9C6.69 9 4 11.69 4 15C4 17.22 5.21 19.15 7 20.19L8 18.45C6.81 17.75 6 16.48 6 15C6 12.79 7.79 11 10 11C12.21 11 14 12.79 14 15C14 16.48 13.19 17.75 12 18.45L13 20.19C14.79 19.15 16 17.22 16 15ZM10 5C4.48 5 0 9.48 0 15C0 18.7 2.01 21.92 4.99 23.65L5.99 21.92C3.61 20.53 2 17.96 2 15C2 10.58 5.58 7 10 7C14.42 7 18 10.58 18 15C18 17.96 16.39 20.53 14 21.92L15 23.65C17.99 21.92 20 18.7 20 15C20 9.48 15.52 5 10 5Z" fill="#1F8EFA"/>
</g>
</svg>

<svg xmlns="http://www.w3.org/2000/svg" width="161" height="36" viewBox="0 0 161 36"><defs><clipPath id="ebssa"><path d="M3 3h14v14H3z"/></clipPath></defs><g><g><g><g><path fill="#fff" d="M158.302 26.5c-.039-1.559-.404-2.771-1.096-3.637-.692-.866-1.672-1.3-2.941-1.3-.673 0-1.274.135-1.802.405-.53.27-.99.63-1.385 1.082a5.03 5.03 0 0 0-.922 1.574 6.46 6.46 0 0 0-.39 1.876zm-10.585 1.184c0-1.309.187-2.45.563-3.421.375-.972.866-1.785 1.472-2.44a5.796 5.796 0 0 1 2.079-1.458 6.332 6.332 0 0 1 2.41-.476c1.829 0 3.286.597 4.374 1.79 1.087 1.193 1.631 3.031 1.631 5.514 0 .154-.005.308-.014.462-.01.154-.024.298-.044.433h-10.48c.058 1.828.51 3.233 1.358 4.215.846.981 2.194 1.472 4.041 1.472 1.02 0 1.829-.096 2.425-.288.597-.193 1.03-.356 1.3-.491l.346 1.616c-.27.154-.775.337-1.516.549-.74.212-1.612.318-2.612.318-1.31 0-2.426-.193-3.35-.578-.923-.385-1.683-.924-2.28-1.617-.597-.692-1.03-1.515-1.3-2.468-.269-.953-.403-1.997-.403-3.132zm-24.02-6.929a40.645 40.645 0 0 1 2.18-.52c.895-.192 2.055-.288 3.479-.288 1.886 0 3.252.548 4.1 1.645a7.948 7.948 0 0 1 1.617-.953 8.156 8.156 0 0 1 3.377-.692c1.135 0 2.054.168 2.757.505.702.337 1.246.808 1.63 1.415.386.606.646 1.332.78 2.18.135.846.202 1.77.202 2.77v8.344h-1.876v-7.737c0-.982-.044-1.833-.13-2.555-.087-.722-.26-1.318-.52-1.79a2.536 2.536 0 0 0-1.111-1.068c-.481-.24-1.107-.36-1.877-.36-.577 0-1.102.052-1.573.158-.472.106-.88.236-1.227.39-.347.154-.63.308-.852.462-.221.154-.38.269-.476.346.173.5.303 1.063.39 1.689.086.625.13 1.285.13 1.977v8.488h-1.877v-7.737c0-.982-.043-1.833-.13-2.555-.086-.722-.264-1.318-.534-1.79a2.604 2.604 0 0 0-1.14-1.068c-.491-.24-1.14-.36-1.949-.36-.905 0-1.67.047-2.295.143-.626.097-1.025.183-1.198.26v13.107h-1.877zm-6.062 6.958c0-1.867-.433-3.354-1.3-4.46-.865-1.107-2.04-1.66-3.521-1.66-1.482 0-2.656.553-3.522 1.66-.867 1.106-1.3 2.593-1.3 4.46s.433 3.349 1.3 4.446c.866 1.097 2.04 1.645 3.522 1.645 1.482 0 2.656-.548 3.522-1.645.866-1.097 1.299-2.58 1.299-4.446zm1.992 0c0 1.174-.169 2.242-.505 3.204-.337.963-.809 1.78-1.415 2.454a6.442 6.442 0 0 1-2.15 1.573c-.828.376-1.743.563-2.743.563-1.001 0-1.915-.187-2.743-.563a6.442 6.442 0 0 1-2.15-1.573c-.607-.674-1.079-1.491-1.415-2.454-.337-.962-.506-2.03-.506-3.204 0-1.174.169-2.242.506-3.205.336-.962.808-1.785 1.414-2.468a6.354 6.354 0 0 1 2.151-1.588c.828-.375 1.742-.563 2.743-.563 1 0 1.915.188 2.742.563a6.354 6.354 0 0 1 2.15 1.588c.607.683 1.079 1.506 1.416 2.468.336.963.505 2.03.505 3.205zM99.85 15.154h1.963v20.007h-1.963v-9.614H88.996v9.614h-1.963V15.155h1.963v8.69h10.855zm-26.358 1.04l4.302-.693v4.475h5.168v3.58h-5.168v5.34c0 .905.159 1.627.476 2.166.318.538.958.808 1.92.808.462 0 .938-.043 1.43-.13.49-.087.937-.207 1.342-.36l.606 3.348c-.52.212-1.097.395-1.732.548-.635.154-1.415.231-2.339.231-1.174 0-2.146-.158-2.916-.476-.77-.317-1.385-.76-1.847-1.328-.462-.568-.784-1.256-.967-2.064a12.185 12.185 0 0 1-.275-2.685zm-2.877 7.592a32.124 32.124 0 0 0-1.358-.303 8.4 8.4 0 0 0-1.677-.158c-.27 0-.592.024-.968.072-.375.048-.66.1-.852.159V35.16h-4.306V20.784c.77-.27 1.68-.524 2.73-.765 1.05-.24 2.221-.36 3.512-.36.231 0 .51.014.838.042a17.076 17.076 0 0 1 1.965.29c.328.066.607.148.838.245zm-19.67-4.214c1.27 0 2.33.144 3.176.433.847.288 1.525.702 2.035 1.24.51.54.871 1.194 1.083 1.964.212.77.318 1.626.318 2.57v8.949c-.616.135-1.473.293-2.57.476-1.097.183-2.425.275-3.984.275-.981 0-1.872-.087-2.67-.26-.799-.173-1.487-.457-2.064-.852a3.897 3.897 0 0 1-1.328-1.544c-.308-.636-.462-1.415-.462-2.339 0-.885.178-1.636.534-2.252a4.11 4.11 0 0 1 1.429-1.472 6.458 6.458 0 0 1 2.05-.794c.77-.164 1.568-.245 2.396-.245.558 0 1.053.024 1.486.072.434.048.785.11 1.054.188v-.405c0-.731-.221-1.318-.664-1.76-.442-.443-1.212-.665-2.31-.665-.73 0-1.452.053-2.165.16a9.288 9.288 0 0 0-1.847.447l-.549-3.465a16.54 16.54 0 0 1 2.165-.476c.443-.067.91-.125 1.4-.173.491-.048.987-.072 1.487-.072zm.347 12.587c.423 0 .827-.01 1.212-.03.385-.019.693-.047.924-.086v-3.262a7.938 7.938 0 0 0-.78-.116 8.527 8.527 0 0 0-2.093.014 2.98 2.98 0 0 0-.938.275 1.61 1.61 0 0 0-.635.549c-.154.23-.23.52-.23.866 0 .673.225 1.14.678 1.4.452.26 1.073.39 1.862.39zm-22.345-5.053c0-1.385-.178-2.367-.534-2.944-.356-.578-.967-.866-1.833-.866-.27 0-.549.014-.838.043a19.99 19.99 0 0 0-.837.101v11.721h-4.301V20.495a29.859 29.859 0 0 1 2.843-.591 23.16 23.16 0 0 1 1.69-.203 20.51 20.51 0 0 1 1.702-.072c1.098 0 1.988.14 2.67.419.684.279 1.247.61 1.69.996a7.39 7.39 0 0 1 2.122-1.04c.798-.25 1.535-.375 2.208-.375 1.213 0 2.209.169 2.988.505.78.337 1.4.814 1.862 1.43.462.615.78 1.347.953 2.194.173.846.26 1.79.26 2.829v8.574H37.29v-8.055c0-1.385-.178-2.367-.534-2.944-.356-.578-.967-.866-1.833-.866-.231 0-.553.057-.967.173-.414.115-.756.26-1.025.433.135.443.221.91.26 1.4.038.49.057 1.015.057 1.573v8.286h-4.301zm-19.4 4.628c.635 0 1.16-.053 1.573-.16.414-.105.746-.25.996-.432.25-.183.424-.4.52-.65.096-.25.144-.53.144-.838 0-.655-.308-1.199-.924-1.632-.616-.433-1.674-.9-3.175-1.4a23.94 23.94 0 0 1-1.963-.795 7.235 7.235 0 0 1-1.762-1.126 5.388 5.388 0 0 1-1.27-1.647c-.327-.645-.49-1.43-.49-2.354 0-.924.173-1.757.52-2.498a5.333 5.333 0 0 1 1.471-1.892c.268-.22.56-.417.875-.593a4.006 4.006 0 0 0 2.766 3.109 1.962 1.962 0 0 0-.306.156c-.472.298-.707.756-.707 1.372 0 .366.086.674.26.924.173.25.418.477.736.679.317.202.683.385 1.097.548.413.164.87.333 1.37.506 1.04.385 1.945.765 2.715 1.14.77.376 1.41.814 1.92 1.315.51.5.89 1.088 1.14 1.762.25.674.375 1.492.375 2.455 0 1.868-.654 3.317-1.963 4.347-1.309 1.03-3.282 1.545-5.918 1.545a16.39 16.39 0 0 1-2.396-.159 15.458 15.458 0 0 1-1.891-.39 10.84 10.84 0 0 1-1.415-.49 10.738 10.738 0 0 1-.996-.492l1.27-3.581c.597.327 1.333.62 2.209.88.875.26 1.948.39 3.219.39zm4.503-16.608c.982.289 1.79.606 2.425.953l-1.299 3.553a12.3 12.3 0 0 0-1.862-.766 6.912 6.912 0 0 0-1.518-.292 4 4 0 0 0 2.2-3.464l.054.016z"/></g><g><g transform="rotate(-315 10 10)"/><g clip-path="url(#ebssa)"><path fill="#1f8efa" d="M10 5c5.52 0 10 4.48 10 10 0 3.7-2.01 6.92-5 8.65l-1-1.73c2.39-1.39 4-3.96 4-6.92 0-4.42-3.58-8-8-8s-8 3.58-8 8c0 2.96 1.61 5.53 3.99 6.92l-1 1.73C2.01 21.92 0 18.7 0 15 0 9.48 4.48 5 10 5zm6 10c0 2.22-1.21 4.15-3 5.19l-1-1.74c1.19-.7 2-1.97 2-3.45 0-2.21-1.79-4-4-4s-4 1.79-4 4c0 1.48.81 2.75 2 3.45l-1 1.74C5.21 19.15 4 17.22 4 15c0-3.31 2.69-6 6-6s6 2.69 6 6zm-6-2c1.1 0 2 .9 2 2s-.9 2-2 2-2-.9-2-2 .9-2 2-2z"/></g></g></g></g></g></svg>
